contributed-vectors/hashtagify.svg

<svg xmlns="http://www.w3.org/2000/svg" xml:space="preserve" style="fill-rule:evenodd;clip-rule:evenodd;stroke-linejoin:round;stroke-miterlimit:2" viewBox="0 0 192 192"><circle cx="88" cy="88" r="88" style="fill:#ff837d" transform="translate(8 8)"/><path d="M71.884 134.681h-17.02c-11.666 0-21.137-9.471-21.137-21.136V71.272c0-11.666 9.471-21.137 21.137-21.137h82.272c11.666 0 21.137 9.471 21.137 21.137v42.273c0 11.665-9.471 21.136-21.137 21.136h-17.02l-20.873 20.143a4.67 4.67 0 0 1-6.486 0l-20.873-20.143Z" style="fill:#fff" transform="translate(19.733 13.342) scale(.79445)"/><path d="M98.001 43.585c.293-1.458-.184-2.951-1.303-4.081-1.12-1.131-2.768-1.783-4.504-1.783h-12.87c-2.87 0-5.323 1.761-5.807 4.17L52.331 147.252c-.293 1.457.183 2.95 1.303 4.081 1.119 1.13 2.767 1.782 4.503 1.782h12.871c2.87 0 5.322-1.761 5.806-4.17l21.187-105.36Z" style="fill:#ff837d" transform="matrix(.27489 0 0 .3228 56.818 58.013)"/><path d="M98.001 43.585c.293-1.458-.184-2.951-1.303-4.081-1.12-1.131-2.768-1.783-4.504-1.783h-12.87c-2.87 0-5.323 1.761-5.807 4.17L52.331 147.252c-.293 1.457.183 2.95 1.303 4.081 1.119 1.13 2.767 1.782 4.503 1.782h12.871c2.87 0 5.322-1.761 5.806-4.17l21.187-105.36Z" style="fill:#ff837d" transform="matrix(.27489 0 0 .3228 69.527 58.013)"/><path d="M75.006 155.731c0-1.445-.427-2.616-.953-2.616H55.79c-.527 0-.954 1.171-.954 2.616v4.153c0 1.445.427 2.616.954 2.616h18.263c.526 0 .953-1.171.953-2.616v-4.153Z" style="fill:#ff837d" transform="matrix(1.69872 0 0 .61903 -24.99 -16.712)"/><path d="M75.006 155.731c0-.694-.102-1.359-.283-1.85-.181-.49-.427-.766-.684-.766H55.803c-.256 0-.502.276-.683.766-.182.491-.284 1.156-.284 1.85v4.153c0 .694.102 1.359.284 1.85.181.49.427.766.683.766h18.236c.257 0 .503-.276.684-.766.181-.491.283-1.156.283-1.85v-4.153Z" style="fill:#ff837d" transform="matrix(1.67525 0 0 .61903 -25.911 -1.943)"/><text x="117.808" y="105.607" style="font-family:&quot;MicrosoftSansSerif&quot;,&quot;Microsoft Sans Serif&quot;,sans-serif;font-size:41.032px;fill:#ff837d;stroke:#ff837d;stroke-width:4.03px" transform="translate(17.052 16.782) scale(.79445)">1</text></svg>

<?xml version="1.0" encoding="UTF-8" standalone="no"?>
<!DOCTYPE svg PUBLIC "-//W3C//DTD SVG 1.1//EN" "http://www.w3.org/Graphics/SVG/1.1/DTD/svg11.dtd">
<svg width="100%" height="100%" viewBox="0 0 192 192" version="1.1" xmlns="http://www.w3.org/2000/svg" xmlns:xlink="http://www.w3.org/1999/xlink" xml:space="preserve" xmlns:serif="http://www.serif.com/" style="fill-rule:evenodd;clip-rule:evenodd;stroke-linejoin:round;stroke-miterlimit:2;">
    <g id="Layer1">
        <g transform="matrix(1,0,0,1,8,8)">
            <circle cx="88" cy="88" r="88" style="fill:rgb(255,131,125);"/>
        </g>
        <g transform="matrix(0.794451,0,0,0.794451,19.7327,13.3417)">
            <path d="M71.884,134.681L54.864,134.681C43.198,134.681 33.727,125.21 33.727,113.545L33.727,71.272C33.727,59.606 43.198,50.135 54.864,50.135L137.136,50.135C148.802,50.135 158.273,59.606 158.273,71.272L158.273,113.545C158.273,125.21 148.802,134.681 137.136,134.681L120.116,134.681C120.116,134.681 105.821,148.476 99.243,154.824C97.434,156.57 94.566,156.57 92.757,154.824C86.179,148.476 71.884,134.681 71.884,134.681Z" style="fill:white;"/>
            <g transform="matrix(1,0,0,1,0.99478,2.06764)">
                <g transform="matrix(0.406327,0,0,0.406327,41.1031,53.1684)">
                    <g transform="matrix(0.851562,0,0,1,11.2777,2.44377)">
                        <path d="M98.001,43.585C98.294,42.127 97.817,40.634 96.698,39.504C95.578,38.373 93.93,37.721 92.194,37.721C88.095,37.721 83.014,37.721 79.324,37.721C76.454,37.721 74.001,39.482 73.517,41.891C70,59.383 56.429,126.868 52.331,147.252C52.038,148.709 52.514,150.202 53.634,151.333C54.753,152.463 56.401,153.115 58.137,153.115C62.236,153.115 67.318,153.115 71.008,153.115C73.878,153.115 76.33,151.354 76.814,148.945C80.332,131.453 93.902,63.968 98.001,43.585Z" style="fill:rgb(255,131,125);"/>
                    </g>
                    <g transform="matrix(0.851562,0,0,1,50.6473,2.44377)">
                        <path d="M98.001,43.585C98.294,42.127 97.817,40.634 96.698,39.504C95.578,38.373 93.93,37.721 92.194,37.721C88.095,37.721 83.014,37.721 79.324,37.721C76.454,37.721 74.001,39.482 73.517,41.891C70,59.383 56.429,126.868 52.331,147.252C52.038,148.709 52.514,150.202 53.634,151.333C54.753,152.463 56.401,153.115 58.137,153.115C62.236,153.115 67.318,153.115 71.008,153.115C73.878,153.115 76.33,151.354 76.814,148.945C80.332,131.453 93.902,63.968 98.001,43.585Z" style="fill:rgb(255,131,125);"/>
                    </g>
                    <g transform="matrix(5.26233,0,0,1.91766,-242.152,-229.042)">
                        <path d="M75.006,155.731C75.006,154.286 74.579,153.115 74.053,153.115C70.658,153.115 59.184,153.115 55.79,153.115C55.263,153.115 54.836,154.286 54.836,155.731C54.836,157.027 54.836,158.588 54.836,159.884C54.836,161.329 55.263,162.5 55.79,162.5C59.184,162.5 70.658,162.5 74.053,162.5C74.579,162.5 75.006,161.329 75.006,159.884C75.006,158.588 75.006,157.027 75.006,155.731Z" style="fill:rgb(255,131,125);"/>
                    </g>
                    <g transform="matrix(5.18963,0,0,1.91766,-245.003,-183.289)">
                        <path d="M75.006,155.731C75.006,155.037 74.904,154.372 74.723,153.881C74.542,153.391 74.296,153.115 74.039,153.115C70.633,153.115 59.209,153.115 55.803,153.115C55.547,153.115 55.301,153.391 55.12,153.881C54.938,154.372 54.836,155.037 54.836,155.731C54.836,157.027 54.836,158.588 54.836,159.884C54.836,160.578 54.938,161.243 55.12,161.734C55.301,162.224 55.547,162.5 55.803,162.5C59.209,162.5 70.633,162.5 74.039,162.5C74.296,162.5 74.542,162.224 74.723,161.734C74.904,161.243 75.006,160.578 75.006,159.884C75.006,158.588 75.006,157.027 75.006,155.731Z" style="fill:rgb(255,131,125);"/>
                    </g>
                </g>
                <g transform="matrix(1,0,0,1,-4.36907,2.26215)">
                    <text x="117.808px" y="105.607px" style="font-family:'MicrosoftSansSerif', 'Microsoft Sans Serif', sans-serif;font-size:41.032px;fill:rgb(255,131,125);stroke:rgb(255,131,125);stroke-width:4.03px;">1</text>
                </g>
            </g>
        </g>
    </g>
</svg>
